packages/bezier-icons/icons/boolean.svg

<svg width="24" height="24" viewBox="0 0 24 24" fill="none" xmlns="http://www.w3.org/2000/svg">
<path fill-rule="evenodd" clip-rule="evenodd" d="M12.4642 4.46412C13.4402 3.48812 14.7202 3.00012 16.0002 3.00012C17.2792 3.00012 18.5592 3.48812 19.5352 4.46412C21.4882 6.41712 21.4882 9.58312 19.5352 11.5361C18.5592 12.5121 17.2792 13.0001 16.0002 13.0001C14.7202 13.0001 13.4402 12.5121 12.4642 11.5361C10.5122 9.58312 10.5122 6.41712 12.4642 4.46412ZM18.1212 5.87812C17.5552 5.31212 16.8012 5.00012 16.0002 5.00012C15.1992 5.00012 14.4452 5.31212 13.8782 5.87812C13.3122 6.44512 13.0002 7.19912 13.0002 8.00012C13.0002 8.80112 13.3122 9.55512 13.8782 10.1211C14.4452 10.6881 15.1992 11.0001 16.0002 11.0001C16.8012 11.0001 17.5552 10.6881 18.1212 10.1211C18.6882 9.55512 19.0002 8.80112 19.0002 8.00012C19.0002 7.19912 18.6882 6.44512 18.1212 5.87812ZM11.5355 19.5358C9.58251 21.4888 6.41751 21.4888 4.46451 19.5358C2.51151 17.5828 2.51151 14.4167 4.46451 12.4648C6.41751 10.5118 9.58251 10.5118 11.5355 12.4648C13.4875 14.4167 13.4875 17.5828 11.5355 19.5358Z" fill="#313234"/>
</svg>

<svg xmlns="http://www.w3.org/2000/svg" width="24" height="24" fill="none" viewBox="0 0 24 24"><path fill="#313234" fill-rule="evenodd" d="M12.464 4.464A4.99 4.99 0 0 1 16 3a5 5 0 1 1-3.536 1.464m5.657 1.414A2.98 2.98 0 0 0 16.001 5c-.802 0-1.556.312-2.123.878A2.99 2.99 0 0 0 13 8c0 .801.312 1.555.878 2.121a2.98 2.98 0 0 0 2.122.88c.801 0 1.555-.313 2.121-.88.567-.566.88-1.32.88-2.12 0-.802-.313-1.556-.88-2.123m-6.585 13.658a5 5 0 0 1-7.071 0 5 5 0 0 1 0-7.071 5 5 0 1 1 7.07 7.07" clip-rule="evenodd"/></svg>
